source/images/icons/icon-editorial/sapin.svg

<?xml version="1.0" encoding="UTF-8"?>
<svg width="80px" height="80px" viewBox="0 0 80 80" version="1.1" xmlns="http://www.w3.org/2000/svg" xmlns:xlink="http://www.w3.org/1999/xlink">
    <!-- Generator: Sketch 55.2 (78181) - https://sketchapp.com -->
    <title>Illustrative Icons/Sapin</title>
    <desc>Created with Sketch.</desc>
    <g id="Illustrative-Icons/Sapin" stroke="none" stroke-width="1" fill="none" fill-rule="evenodd">
        <path d="M59.8327003,61.98409 C60.3825661,63.1324975 59.5098689,64.4422211 58.1947945,64.4422211 L48.9607997,64.4422211 C47.9649818,64.4422211 47.1577119,63.6661664 47.1577119,62.7088544 C47.1577119,61.7515424 47.9649818,60.9754877 48.9607997,60.9754877 L55.3799175,60.9754877 L45.6837232,40.7247644 C45.1338574,39.576357 46.0065546,38.2666333 47.321629,38.2666333 L51.8872834,38.2666333 L40,11.2274075 L28.1127166,38.2666333 L32.678371,38.2666333 C33.9934454,38.2666333 34.8661426,39.576357 34.3162768,40.7247644 L24.6200825,60.9754877 L36.2116944,60.9754877 C37.2075123,60.9754877 38.0147822,61.7515424 38.0147822,62.7088544 L38.0147822,71.5332666 L41.7848747,71.5332666 L41.7848747,67.6638319 C41.7848747,66.7065199 42.5921446,65.9304652 43.5879625,65.9304652 C44.5837803,65.9304652 45.3910502,66.7065199 45.3910502,67.6638319 L45.3910502,73.2666333 C45.3910502,74.2239453 44.5837803,75 43.5879625,75 L36.2116944,75 C35.2158766,75 34.4086067,74.2239453 34.4086067,73.2666333 L34.4086067,64.4422211 L21.8052055,64.4422211 C20.4901311,64.4422211 19.6174339,63.1324975 20.1672997,61.98409 L29.863494,41.7333667 L25.393168,41.7333667 C24.1025996,41.7333667 23.22991,40.4680088 23.732318,39.3252142 L38.2141146,6.38441842 C38.3795089,5.62024102 39.078232,5 39.981787,5 L40.018213,5 C40.921768,5 41.6204911,5.62024102 41.7858852,6.3844177 L56.267682,39.3252142 C56.77009,40.4680088 55.8974004,41.7333667 54.606832,41.7333667 L50.136506,41.7333667 L59.8327003,61.98409 Z M45,63.5 C45,64.325 44.325,65 43.5,65 C42.675,65 42,64.325 42,63.5 C42,62.675 42.675,62 43.5,62 C44.34,62 45,62.675 45,63.5 Z" id="Shape" fill="#ADB5BD"></path>
    </g>
</svg>

<svg width="80" height="80">
    <title>
        Illustrative Icons/Sapin
    </title>
    <path d="M59.833 61.984c.55 1.148-.323 2.458-1.638 2.458H48.96c-.996 0-1.803-.776-1.803-1.733 0-.957.807-1.734 1.803-1.734h6.419l-9.696-20.25c-.55-1.149.323-2.458 1.638-2.458h4.565L40 11.227l-11.887 27.04h4.565c1.315 0 2.188 1.31 1.638 2.458l-9.696 20.25h11.592c.996 0 1.803.777 1.803 1.734v8.824h3.77v-3.87c0-.956.807-1.733 1.803-1.733.996 0 1.803.777 1.803 1.734v5.603c0 .957-.807 1.733-1.803 1.733h-7.376c-.996 0-1.803-.776-1.803-1.733v-8.825H21.805c-1.315 0-2.188-1.31-1.638-2.458l9.696-20.25h-4.47c-1.29 0-2.163-1.266-1.66-2.409l14.481-32.94C38.38 5.62 39.078 5 39.982 5h.036c.904 0 1.602.62 1.768 1.384l14.482 32.941c.502 1.143-.37 2.408-1.661 2.408h-4.47l9.696 20.251zM45 63.5c0 .825-.675 1.5-1.5 1.5s-1.5-.675-1.5-1.5.675-1.5 1.5-1.5c.84 0 1.5.675 1.5 1.5z" fill="#ADB5BD" fill-rule="evenodd"/>
</svg>
